X:303
T:Monroe's Hornpipe
C:Bill Monroe
N:Arr. by Mike Stangeland
R:bluegrass
L:1/8
Q:1/4=230
M:4/4
K:C
z8 | 
K:A
|: "A"A,B, CE "D"DE FA | "E"EF GB "A"AF EC | A,B, CE "D"DE FA | "E"EF GB "A"A4 | 
A,B, CE "D"DE FA | "E"EF GB "A"AF EC | A,B, CE "D"DE FA |1 E"E"F GB "A"A4 :|2 E"E"F GB "A"A2 E/F/G | 
"A"A2 AB ce cB | Ac BA FE CE | A2 AB ce cB | Ac BA "D"F2 E/F/G | "A"A2 AB ce cB | 
Ac BA EF Ae | ag a2 "D"e2 c2 | "E"=c^c =c^c "A"A2 E/F/G | "A"A2 AB ce cB | Ac BA FE CE | 
A2 AB ce cB | Ac BA "D"F2 E/F/G | "A"A2 AB ce cB | Ac BA EF A^A | B^A B=A "D"=GA GF | 
"E"ED =C^C "A"[E4A,4] | 


